logo/geekbot.svg

<?xml version="1.0" encoding="UTF-8" standalone="no"?>
<svg width="256px" height="284px" viewBox="0 0 256 284" version="1.1" xmlns="http://www.w3.org/2000/svg" xmlns:xlink="http://www.w3.org/1999/xlink" preserveAspectRatio="xMidYMid">
    <g stroke="none" stroke-width="1" fill="none" fill-rule="evenodd">
		<ellipse fill="#6FC0BF" cx="127.748451" cy="156.0842" rx="127.748451" ry="127.477662"></ellipse>
		<path d="M84.7773328,276.161153 C98.2069248,280.948494 112.671134,283.561862 127.748451,283.561862 C142.521768,283.561862 156.707525,281.050679 169.907202,276.447269 L167.613161,238.360568 L86.9947355,238.360568 L84.7773328,276.161153 L84.7773328,276.161153 Z" fill="#D4D4D4"></path>
		<path d="M214.863253,128.898026 C198.886713,127.873627 204.271834,141.198479 203.247435,157.141809 C202.220481,173.085139 195.169754,185.612953 211.148848,186.634797 C227.125387,187.659196 230.949641,174.924459 231.976594,158.981129 C232.998439,143.040354 230.839792,129.922425 214.863253,128.898026 L214.863253,128.898026 Z" fill="#A3A3A3"></path>
		<path d="M169.357961,268.129454 L167.610606,238.360568 L86.9947355,238.360568 L86.0801846,253.943698 C99.2083324,270.528235 162.069654,275.200619 169.357961,268.129454 L169.357961,268.129454 Z" fill="#A3A3A3"></path>
		<path d="M39.7446436,128.898026 C55.7211831,127.873627 50.3360624,141.198479 51.3604615,157.141809 C52.3874153,173.085139 59.4381427,185.612953 43.4590486,186.634797 C27.4825091,187.659196 23.6582559,174.924459 22.6313021,158.981129 C21.6043483,143.0378 23.7655495,129.922425 39.7446436,128.898026 L39.7446436,128.898026 Z" fill="#BFBFBF"></path>
		<path d="M127.303948,16.5870916 L127.303948,16.5870916 L127.303948,16.5870916 L127.303948,16.5870916 L127.303948,16.5870916 C77.9820666,16.5870916 37.9998441,56.4850119 37.9998441,105.702155 L37.9998441,212.622859 C37.9998441,224.394508 52.6837502,256.02826 127.303948,256.02826 C201.924146,256.02826 216.608052,224.397062 216.608052,212.622859 L216.608052,105.702155 C216.608052,56.4850119 176.62583,16.5870916 127.303948,16.5870916 L127.303948,16.5870916 Z" fill="#D4D4D4"></path>
		<path d="M127.303948,256.02826 C201.924146,256.02826 216.608052,224.397062 216.608052,212.622859 L216.608052,105.702155 C216.608052,56.4850119 176.62583,16.5870916 127.303948,16.5870916 L127.303948,256.02826 L127.303948,256.02826 Z" fill="#B3B3B3"></path>
		<path d="M49.7868209,87.6870352 C48.9897822,90.6606028 48.3587932,93.7031449 47.906627,96.8044431" stroke="#F0F0F0" stroke-width="3.238"></path>
		<path d="M88.4304271,38.3753719 C74.8143485,45.9140301 63.6277053,57.2897145 56.3368445,71.0411875" stroke="#F0F0F0" stroke-width="3.238"></path>
		<path d="M207.237738,113.491165 C195.126325,112.556177 176.59262,112.178094 153.790159,116.285909 C145.068716,117.856995 138.815027,123.804131 127.303948,123.804131 C115.790315,123.804131 109.539181,117.856995 100.817738,116.285909 C78.0127219,112.178094 59.4815711,112.556177 47.367604,113.491165 C37.0623017,114.285649 22.112716,116.329338 22.6313021,121.768105 C22.927637,124.88984 23.2341904,125.564258 23.8370787,128.634901 C24.4323031,131.679998 28.9437468,131.294251 30.4892867,134.896253 C32.149784,138.763935 36.7761852,155.414892 37.9589703,159.17528 C40.3398681,166.739484 45.2728226,172.41583 52.8932283,175.026643 C63.6915706,178.728275 74.6917271,178.649082 85.8528242,177.103542 C94.0020345,175.974404 100.687452,171.940673 106.072573,165.722749 C110.341329,160.794903 113.378762,155.167094 115.836298,149.18164 C117.054847,146.210627 118.09202,143.111883 119.73208,140.386113 C120.702832,138.774153 122.567699,136.901623 124.248633,136.653826 C125.377771,136.487776 126.384288,136.357491 127.301394,136.293626 C128.215944,136.357491 129.225016,136.487776 130.354154,136.653826 C132.037643,136.899069 133.899955,138.771599 134.870707,140.386113 C136.513322,143.114438 137.54794,146.210627 138.766489,149.18164 C141.224026,155.167094 144.261458,160.794903 148.530214,165.722749 C153.915335,171.940673 160.603307,175.974404 168.749963,177.103542 C179.91106,178.651637 190.911217,178.728275 201.709559,175.026643 C209.329965,172.41583 214.262919,166.739484 216.643817,159.17528 C217.829157,155.412337 222.453003,138.763935 224.116055,134.896253 C225.661595,131.296806 230.170484,131.682552 230.768263,128.634901 C231.368597,125.564258 231.672596,124.88984 231.971485,121.768105 C232.49518,116.331892 217.545595,114.288203 207.237738,113.491165 L207.237738,113.491165 Z M108.037069,139.729578 C107.546584,150.177938 103.52818,159.101196 95.5399105,166.016529 C91.0259122,169.925084 84.2383098,171.475733 70.3054594,171.475733 C56.2040047,171.475733 48.3690116,165.520934 46.5475737,161.584278 C42.1536422,152.081124 40.4573802,141.793704 42.161306,131.312133 C43.2214697,124.800429 43.9597524,121.300612 65.627966,121.300612 C89.6362036,121.300612 99.1827863,125.753299 102.107816,127.163445 C106.764873,129.408948 108.274648,134.648456 108.037069,139.729578 L108.037069,139.729578 Z M208.055214,161.584278 C206.233776,165.520934 198.398783,171.475733 184.297328,171.475733 C170.367032,171.475733 163.576875,169.925084 159.062877,166.016529 C151.077162,159.101196 147.058758,150.177938 146.568273,139.729578 C146.328139,134.651011 147.840469,129.408948 152.494971,127.165999 C155.420001,125.755854 164.966584,121.303166 188.974821,121.303166 C210.64048,121.303166 211.378763,124.800429 212.441481,131.314688 C214.145407,141.793704 212.449145,152.081124 208.055214,161.584278 L208.055214,161.584278 Z" fill="#333333"></path>
		<path d="M108.037069,139.729578 C107.546584,150.177938 103.52818,159.101196 95.5399105,166.016529 C91.0259122,169.925084 84.2383098,171.475733 70.3054594,171.475733 C56.2040047,171.475733 48.3690116,165.520934 46.5475737,161.584278 C42.1536422,152.081124 40.4573802,141.793704 42.161306,131.312133 C43.2214697,124.800429 43.9597524,121.300612 65.627966,121.300612 C89.6362036,121.300612 99.1827863,125.753299 102.107816,127.163445 C106.764873,129.408948 108.274648,134.648456 108.037069,139.729578 L108.037069,139.729578 Z M208.055214,161.584278 C206.233776,165.520934 198.398783,171.475733 184.297328,171.475733 C170.367032,171.475733 163.576875,169.925084 159.062877,166.016529 C151.077162,159.101196 147.058758,150.177938 146.568273,139.729578 C146.328139,134.651011 147.840469,129.408948 152.494971,127.165999 C155.420001,125.755854 164.966584,121.303166 188.974821,121.303166 C210.64048,121.303166 211.378763,124.800429 212.441481,131.314688 C214.145407,141.793704 212.449145,152.081124 208.055214,161.584278 L208.055214,161.584278 Z" opacity="0.5" fill="#FFFFFF"></path>
		<path d="M136.569524,141.448831 C136.569524,143.127211 135.207916,144.486264 133.526982,144.486264 L121.967365,144.486264 C120.286431,144.486264 118.924823,143.127211 118.924823,141.448831 L118.924823,121.701686 C118.924823,120.023306 120.286431,118.664253 121.967365,118.664253 L133.526982,118.664253 C135.207916,118.664253 136.569524,120.023306 136.569524,121.701686 L136.569524,141.448831 L136.569524,141.448831 Z" fill="#FFFFFF"></path>
		<path d="M190.844797,202.9511 C184.688183,190.571453 175.782808,205.748399 127.301394,205.748399 C78.8199791,205.748399 69.9146039,190.571453 63.7579905,202.9511 C57.0981187,216.344927 95.7672709,230.221576 127.301394,230.221576 C158.835516,230.221576 197.507223,216.344927 190.844797,202.9511 L190.844797,202.9511 Z" fill="#FFFFFF"></path>
		<path d="M190.844797,202.9511 C184.688183,190.571453 175.782808,205.748399 127.301394,205.748399 L127.301394,230.221576 C158.835516,230.221576 197.507223,216.344927 190.844797,202.9511 L190.844797,202.9511 Z" fill="#F0F0F0"></path>
		<path d="M127.303948,0 C107.748398,0 93.6137335,7.54632198 95.4556083,16.7914605 C97.3000377,26.0340444 100.891821,45.2804865 127.303948,45.2804865 C153.716075,45.2804865 157.307859,26.0340444 159.152288,16.7914605 C160.994163,7.54632198 146.859498,0 127.303948,0 L127.303948,0 Z" fill="#666666"></path>
		<path d="M127.303948,0 C146.859498,0 160.994163,7.54632198 159.152288,16.7914605 C157.310413,26.036599 153.716075,45.2804865 127.303948,45.2804865 L127.303948,0 L127.303948,0 Z" fill="#4D4D4D"></path>
    </g>
</svg>

<svg viewBox="0 0 256 284" xmlns="http://www.w3.org/2000/svg"><g fill="#6FC0BF" fill-rule="evenodd"><path d="M127.74 28.6a127.74 127.47 0 1 0 0 254.95 127.74 127.47 0 1 0 0-254.96Z"/><path fill="#D4D4D4" d="M84.77 276.16c13.42 4.78 27.89 7.4 42.97 7.4 14.77 0 28.95-2.52 42.15-7.12l-2.3-38.09H86.97l-2.22 37.8v0Z"/><g fill="#A3A3A3"><path d="M214.86 128.89c-15.98-1.03-10.6 12.3-11.62 28.24 -1.03 15.94-8.08 28.47 7.9 29.49 15.97 1.02 19.8-11.72 20.82-27.66 1.02-15.95-1.14-29.06-17.12-30.09v0Z"/><path d="M169.35 268.12l-1.75-29.77H86.98l-.92 15.58c13.12 16.58 75.98 21.25 83.27 14.18v0Z"/></g><path fill="#BFBFBF" d="M39.74 128.89c15.97-1.03 10.59 12.3 11.61 28.24 1.02 15.94 8.07 28.47-7.91 29.49 -15.98 1.02-19.81-11.72-20.83-27.66 -1.03-15.95 1.13-29.06 17.11-30.09v0Z"/><path fill="#D4D4D4" d="M127.3 16.58v0 0 0 0c-49.33 0-89.31 39.89-89.31 89.11v106.92c0 11.77 14.68 43.4 89.3 43.4s89.3-31.64 89.3-43.41V105.67c0-49.22-39.99-89.12-89.31-89.12v0Z"/><path fill="#B3B3B3" d="M127.3 256.02c74.62 0 89.3-31.64 89.3-43.41V105.68c0-49.22-39.99-89.12-89.31-89.12V256v0Z"/><g stroke-width="3.238" fill-rule="evenodd" stroke="#F0F0F0" fill="none"><path d="M49.78 87.68c-.8 2.97-1.43 6.01-1.89 9.11"/><path d="M88.43 38.37c-13.62 7.53-24.81 18.91-32.1 32.66"/></g><path fill="#333" d="M207.23 113.49c-12.12-.94-30.65-1.32-53.45 2.79 -8.73 1.57-14.98 7.51-26.49 7.51 -11.52 0-17.77-5.95-26.49-7.52 -22.81-4.11-41.34-3.73-53.46-2.8 -10.31.79-25.26 2.83-24.74 8.27 .29 3.12.6 3.79 1.2 6.86 .59 3.04 5.1 2.65 6.65 6.26 1.66 3.86 6.28 20.51 7.46 24.27 2.38 7.56 7.31 13.24 14.93 15.85 10.79 3.7 21.79 3.62 32.95 2.07 8.14-1.13 14.83-5.17 20.21-11.39 4.26-4.93 7.3-10.56 9.76-16.55 1.21-2.98 2.25-6.07 3.89-8.8 .97-1.62 2.83-3.49 4.51-3.74 1.12-.17 2.13-.3 3.05-.37 .91.06 1.92.19 3.05.36 1.68.24 3.54 2.11 4.51 3.73 1.64 2.72 2.67 5.82 3.89 8.79 2.45 5.98 5.49 11.61 9.76 16.54 5.38 6.21 12.07 10.25 20.21 11.38 11.16 1.54 22.16 1.62 32.95-2.08 7.62-2.62 12.55-8.29 14.93-15.86 1.18-3.77 5.8-20.42 7.47-24.28 1.54-3.6 6.05-3.22 6.65-6.27 .6-3.08.9-3.75 1.2-6.87 .52-5.44-14.43-7.48-24.74-8.28v0Zm-99.21 26.23c-.5 10.44-4.51 19.37-12.5 26.28 -4.52 3.9-11.31 5.45-25.24 5.45 -14.11 0-21.94-5.96-23.76-9.9 -4.4-9.51-6.1-19.8-4.39-30.28 1.06-6.52 1.79-10.02 23.46-10.02 24 0 33.55 4.45 36.47 5.86 4.65 2.24 6.16 7.48 5.92 12.56v0Zm100.01 21.85c-1.83 3.93-9.66 9.89-23.76 9.89 -13.94 0-20.73-1.56-25.24-5.46 -7.99-6.92-12.01-15.84-12.5-26.29 -.25-5.08 1.27-10.33 5.92-12.57 2.92-1.42 12.47-5.87 36.47-5.87 21.66 0 22.4 3.49 23.46 10.01 1.7 10.47 0 20.76-4.39 30.26v0Z"/><g fill="#FFF"><path opacity=".5" d="M108.03 139.72c-.5 10.44-4.51 19.37-12.5 26.28 -4.52 3.9-11.31 5.45-25.24 5.45 -14.11 0-21.94-5.96-23.76-9.9 -4.4-9.51-6.1-19.8-4.39-30.28 1.06-6.52 1.79-10.02 23.46-10.02 24 0 33.55 4.45 36.47 5.86 4.65 2.24 6.16 7.48 5.92 12.56v0Zm100.01 21.85c-1.83 3.93-9.66 9.89-23.76 9.89 -13.94 0-20.73-1.56-25.24-5.46 -7.99-6.92-12.01-15.84-12.5-26.29 -.25-5.08 1.27-10.33 5.92-12.57 2.92-1.42 12.47-5.87 36.47-5.87 21.66 0 22.4 3.49 23.46 10.01 1.7 10.47 0 20.76-4.39 30.26v0Z"/><path d="M136.56 141.44c0 1.67-1.37 3.03-3.05 3.03h-11.56c-1.69 0-3.05-1.36-3.05-3.04v-19.75c0-1.68 1.36-3.04 3.04-3.04h11.55c1.68 0 3.04 1.35 3.04 3.03v19.74 0Z"/><path d="M190.84 202.95c-6.16-12.38-15.07 2.79-63.55 2.79 -48.49 0-57.39-15.18-63.55-2.8 -6.66 13.39 32 27.27 63.54 27.27 31.53 0 70.2-13.88 63.54-27.28v0Z"/></g><path fill="#F0F0F0" d="M190.84 202.95c-6.16-12.38-15.07 2.79-63.55 2.79v24.47c31.53 0 70.2-13.88 63.54-27.28v0Z"/><path fill="#666" d="M127.3 0c-19.56 0-33.7 7.54-31.85 16.79 1.84 9.24 5.43 28.48 31.84 28.48s30-19.25 31.84-28.49c1.84-9.25-12.3-16.8-31.85-16.8v0Z"/><path fill="#4D4D4D" d="M127.3 0c19.55 0 33.69 7.54 31.84 16.79 -1.85 9.24-5.44 28.48-31.85 28.48V-.02v0Z"/></g></svg>
